dist/images/svg/logo-tablet.svg

<svg width="287" height="64" viewBox="0 0 287 64" fill="none" xmlns="http://www.w3.org/2000/svg">
<g filter="url(#filter0_d_45_1096)">
<path d="M189.012 50.6432C102.683 66.1216 64.3486 43.4809 36.547 26.8127C22.7587 18.5461 13.2738 8.59547 4.76611 -0.658936L55.6265 -0.67027L150.712 -0.713407C189.024 -0.721962 231.36 -0.709461 282.139 -0.742745C253.654 22.7837 229.344 43.4119 189.012 50.6432Z" fill="url(#paint0_linear_45_1096)"/>
</g>
<path d="M169.251 18.2079C170.65 18.4553 171.763 19.13 172.59 20.232C173.438 21.3341 173.862 22.6948 173.862 24.3142C173.862 25.3263 173.682 26.2484 173.322 27.0806C172.982 27.9352 172.484 28.655 171.827 29.2397C171.191 29.847 170.417 30.3081 169.505 30.6229C168.615 30.9603 167.619 31.129 166.516 31.129C164.905 31.129 163.495 30.7804 162.286 30.0831C161.078 29.4084 160.166 28.4638 159.552 27.2493L161.046 25.7986C161.491 26.7882 162.17 27.5754 163.081 28.1602C163.993 28.7449 165.138 29.0373 166.516 29.0373C168.106 29.0373 169.357 28.6212 170.269 27.7891C171.18 26.9794 171.636 25.8098 171.636 24.2804C171.636 22.7286 171.159 21.5028 170.205 20.6032C169.251 19.7035 167.873 19.2537 166.071 19.2537H165.276V17.297H166.134C167.767 17.297 169.018 16.9034 169.887 16.1162C170.756 15.3065 171.191 14.2607 171.191 12.9787C171.191 12.3039 171.074 11.7079 170.841 11.1906C170.608 10.6733 170.279 10.246 169.855 9.90864C169.452 9.54878 168.965 9.27889 168.392 9.09896C167.841 8.91903 167.237 8.82907 166.58 8.82907C165.371 8.82907 164.301 9.12145 163.368 9.70622C162.456 10.2685 161.767 11.0557 161.301 12.0678L159.901 10.6508C160.156 10.0661 160.516 9.53754 160.983 9.06522C161.449 8.57042 161.979 8.15433 162.573 7.81697C163.166 7.4796 163.824 7.22096 164.544 7.04103C165.265 6.83861 166.007 6.7374 166.77 6.7374C167.746 6.7374 168.636 6.88359 169.442 7.17597C170.269 7.46836 170.979 7.88444 171.573 8.42423C172.166 8.94152 172.622 9.57127 172.94 10.3135C173.279 11.0557 173.449 11.8766 173.449 12.7763C173.449 13.451 173.353 14.1032 173.163 14.733C172.972 15.3402 172.696 15.8913 172.336 16.3861C171.975 16.8584 171.53 17.2632 171 17.6006C170.491 17.9155 169.908 18.1179 169.251 18.2079Z" fill="url(#paint1_linear_45_1096)"/>
<path d="M188.177 25.4245C188.669 25.4245 189.106 25.5388 189.486 25.7675C189.866 25.9962 190.157 26.3177 190.358 26.7321C190.567 27.1466 190.672 27.6325 190.672 28.1898C190.672 28.7472 190.567 29.2402 190.358 29.6689C190.15 30.0905 189.855 30.4192 189.475 30.655C189.102 30.8836 188.669 30.998 188.177 30.998C187.715 30.998 187.316 30.9015 186.98 30.7086C186.652 30.5157 186.406 30.237 186.242 29.8726V30.9229H185.56V23.0344H186.231V26.5606C186.395 26.1891 186.645 25.9068 186.98 25.7139C187.316 25.521 187.715 25.4245 188.177 25.4245ZM188.099 30.4192C188.681 30.4192 189.135 30.2227 189.464 29.8297C189.792 29.4367 189.956 28.8901 189.956 28.1898C189.956 27.4967 189.792 26.9572 189.464 26.5714C189.135 26.1855 188.677 25.9926 188.088 25.9926C187.499 25.9926 187.044 26.1855 186.723 26.5714C186.402 26.9572 186.242 27.5038 186.242 28.2112C186.242 28.9186 186.402 29.4653 186.723 29.8511C187.044 30.2298 187.502 30.4192 188.099 30.4192Z" fill="black"/>
<path d="M199.105 25.5531L196.465 31.4803C196.204 32.0662 195.876 32.495 195.481 32.7665C195.093 33.0451 194.605 33.2416 194.016 33.356L193.881 32.8415C194.418 32.72 194.821 32.5628 195.09 32.3699C195.365 32.177 195.597 31.8733 195.783 31.4589L196.018 30.9337L193.624 25.5531H194.351L196.376 30.2691L198.412 25.5531H199.105Z" fill="black"/>
<ellipse cx="179.058" cy="30.6399" rx="0.541832" ry="0.543243" fill="black"/>
<path d="M148.251 30.8573C147.298 30.8573 146.452 30.6183 145.715 30.1402C144.993 29.6477 144.408 29.032 143.96 28.2932V35.2684H142.486V19.3188H143.808V21.5135C144.271 20.8037 144.87 20.2315 145.607 19.7969C146.344 19.3478 147.146 19.1233 148.013 19.1233C148.793 19.1233 149.508 19.2899 150.158 19.623C150.809 19.9417 151.372 20.3763 151.849 20.9268C152.326 21.4628 152.694 22.0857 152.954 22.7956C153.229 23.5054 153.366 24.237 153.366 24.9903C153.366 25.787 153.243 26.5403 152.998 27.2502C152.752 27.96 152.398 28.5829 151.936 29.1189C151.488 29.6549 150.946 30.0823 150.31 30.401C149.689 30.7052 149.003 30.8573 148.251 30.8573ZM147.839 29.5535C148.446 29.5535 148.995 29.4231 149.487 29.1624C149.992 28.9016 150.419 28.5612 150.765 28.1411C151.126 27.7065 151.401 27.2212 151.589 26.6852C151.777 26.1347 151.871 25.5697 151.871 24.9903C151.871 24.3819 151.762 23.8024 151.546 23.2519C151.329 22.7014 151.033 22.2161 150.657 21.796C150.281 21.3759 149.833 21.0427 149.313 20.7964C148.807 20.5502 148.258 20.427 147.666 20.427C147.29 20.427 146.893 20.5067 146.474 20.6661C146.069 20.8109 145.687 21.0137 145.325 21.2745C144.979 21.5208 144.675 21.8177 144.415 22.1654C144.169 22.4986 144.018 22.8535 143.96 23.2302V26.7069C144.133 27.1126 144.35 27.4892 144.61 27.8369C144.885 28.1846 145.188 28.4888 145.52 28.7495C145.867 28.9958 146.236 29.1914 146.626 29.3362C147.016 29.4811 147.42 29.5535 147.839 29.5535Z" fill="black"/>
<path d="M124.046 30.8573C123.222 30.8573 122.471 30.7052 121.792 30.401C121.113 30.0823 120.521 29.6549 120.015 29.1189C119.524 28.5829 119.141 27.96 118.866 27.2502C118.592 26.5403 118.454 25.7943 118.454 25.012C118.454 24.2153 118.592 23.462 118.866 22.7521C119.155 22.0423 119.545 21.4194 120.036 20.8834C120.542 20.3474 121.135 19.92 121.814 19.6013C122.493 19.2826 123.237 19.1233 124.046 19.1233C124.855 19.1233 125.599 19.2826 126.278 19.6013C126.972 19.92 127.564 20.3474 128.056 20.8834C128.561 21.4194 128.951 22.0423 129.226 22.7521C129.515 23.462 129.659 24.2153 129.659 25.012C129.659 25.7943 129.522 26.5403 129.248 27.2502C128.973 27.96 128.583 28.5829 128.077 29.1189C127.586 29.6549 126.994 30.0823 126.3 30.401C125.621 30.7052 124.87 30.8573 124.046 30.8573ZM119.95 25.0337C119.95 25.6711 120.058 26.2651 120.275 26.8156C120.492 27.3516 120.781 27.8296 121.142 28.2497C121.518 28.6554 121.951 28.9741 122.442 29.2058C122.948 29.4376 123.483 29.5535 124.046 29.5535C124.61 29.5535 125.137 29.4376 125.628 29.2058C126.134 28.9596 126.575 28.6336 126.95 28.228C127.326 27.8079 127.622 27.3226 127.839 26.7721C128.056 26.2216 128.164 25.6277 128.164 24.9903C128.164 24.3674 128.056 23.7807 127.839 23.2302C127.622 22.6652 127.326 22.1799 126.95 21.7743C126.575 21.3542 126.134 21.0282 125.628 20.7964C125.137 20.5502 124.61 20.427 124.046 20.427C123.483 20.427 122.955 20.5502 122.464 20.7964C121.973 21.0282 121.539 21.3542 121.164 21.7743C120.788 22.1944 120.492 22.6869 120.275 23.2519C120.058 23.8024 119.95 24.3963 119.95 25.0337Z" fill="black"/>
<path d="M101.566 30.0968C101.479 30.1402 101.349 30.1982 101.176 30.2706C101.017 30.3431 100.829 30.4155 100.613 30.4879C100.396 30.5604 100.15 30.6255 99.8757 30.6835C99.6011 30.7414 99.3122 30.7704 99.0087 30.7704C98.6909 30.7704 98.3874 30.7269 98.0985 30.64C97.8095 30.5531 97.5566 30.4227 97.3399 30.2489C97.1232 30.0606 96.9498 29.8288 96.8197 29.5535C96.6897 29.2783 96.6247 28.9596 96.6247 28.5974V20.4923H95.0642V19.3188H96.6247V15.4944H98.0985V19.3188H100.699V20.4923H98.0985V28.1846C98.1274 28.6047 98.2719 28.9161 98.5319 29.1189C98.8065 29.3073 99.1171 29.4014 99.4639 29.4014C99.8829 29.4014 100.251 29.3362 100.569 29.2059C100.887 29.061 101.089 28.9596 101.176 28.9017L101.566 30.0968Z" fill="black"/>
<path d="M81.1448 30.6401L76.55 19.3189H78.0672L81.9467 29.2711L85.8479 19.3189H87.2783L82.6836 30.6401H81.1448Z" fill="black"/>
<path fill-rule="evenodd" clip-rule="evenodd" d="M112.252 16.3481C112.604 16.5728 112.707 17.0406 112.483 17.393C111.147 19.4932 110.373 21.9869 110.373 24.6642C110.373 32.1443 116.421 38.2081 123.882 38.2081C130.644 38.2081 136.247 33.2258 137.236 26.7231C137.299 26.31 137.684 26.0261 138.096 26.0891C138.508 26.152 138.791 26.538 138.728 26.9512C137.629 34.182 131.401 39.7215 123.882 39.7215C115.588 39.7215 108.864 32.9801 108.864 24.6642C108.864 21.6901 109.725 18.9153 111.21 16.5793C111.434 16.2269 111.901 16.1234 112.252 16.3481Z" fill="url(#paint2_linear_45_1096)"/>
<path d="M115.725 10.6958C116.073 10.5251 116.474 10.796 116.448 11.1835L115.765 21.1522C115.73 21.6712 115.029 21.8032 114.808 21.3325L112.682 16.8037C112.605 16.6399 112.447 16.5299 112.267 16.5156L106.866 16.0865C106.356 16.046 106.225 15.3561 106.685 15.1305L115.725 10.6958Z" fill="url(#paint3_linear_45_1096)"/>
<path d="M121.206 5.55983C121.164 5.31125 121.333 5.07287 121.584 5.02685L124.308 4.52728C124.559 4.48126 124.796 4.64516 124.838 4.89374C124.88 5.14232 124.711 5.3807 124.46 5.42672L121.736 5.92629C121.485 5.97231 121.248 5.8084 121.206 5.55983Z" fill="#5C6ABF"/>
<path d="M120.27 4.11771C120.06 3.98172 120.012 3.69653 120.165 3.4939L121.763 1.2423C121.907 1.04131 122.196 0.987977 122.405 1.12397C122.607 1.27052 122.655 1.55571 122.512 1.7567L120.903 4.00105C120.761 4.21099 120.471 4.26432 120.27 4.11771Z" fill="#5C6ABF"/>
<path d="M114.054 2.64142C114.201 2.43481 114.487 2.38208 114.693 2.52359L116.929 4.06079C117.135 4.20229 117.183 4.4843 117.035 4.6909C116.888 4.8975 116.602 4.95024 116.396 4.80873L114.16 3.27153C113.954 3.13002 113.906 2.84805 114.054 2.64142Z" fill="#5C6ABF"/>
<path d="M120.819 7.23636C120.967 7.02976 121.253 6.97702 121.459 7.11853L123.695 8.65572C123.901 8.79723 123.948 9.07924 123.801 9.28584C123.653 9.49244 123.367 9.54518 123.161 9.40367L120.925 7.86648C120.719 7.72497 120.672 7.44299 120.819 7.23636Z" fill="#5C6ABF"/>
<path d="M118.016 3.39147L117.566 0.728259C117.524 0.482918 117.691 0.247661 117.939 0.20227C118.186 0.15688 118.42 0.318677 118.461 0.564018L118.912 3.22723C118.953 3.47257 118.786 3.70782 118.539 3.75322C118.291 3.79861 118.057 3.63681 118.016 3.39147Z" fill="#5C6ABF"/>
<path d="M122.408 1.12943L120.269 4.11279C120.059 3.977 120.01 3.69258 120.163 3.49066L121.764 1.24687C121.907 1.04656 122.197 0.993638 122.408 1.12943Z" fill="#5C6ABF"/>
<defs>
<filter id="filter0_d_45_1096" x="0.766113" y="-0.742737" width="285.373" height="64.5551" filterUnits="userSpaceOnUse" color-interpolation-filters="sRGB">
<feFlood flood-opacity="0" result="BackgroundImageFix"/>
<feColorMatrix in="SourceAlpha" type="matrix" values="0 0 0 0 0 0 0 0 0 0 0 0 0 0 0 0 0 0 127 0" result="hardAlpha"/>
<feOffset dy="4"/>
<feGaussianBlur stdDeviation="2"/>
<feColorMatrix type="matrix" values="0 0 0 0 0 0 0 0 0 0 0 0 0 0 0 0 0 0 0.25 0"/>
<feBlend mode="normal" in2="BackgroundImageFix" result="effect1_dropShadow_45_1096"/>
<feBlend mode="normal" in="SourceGraphic" in2="effect1_dropShadow_45_1096" result="shape"/>
</filter>
<linearGradient id="paint0_linear_45_1096" x1="27.5951" y1="-102.399" x2="222.54" y2="54.7038" gradientUnits="userSpaceOnUse">
<stop stop-color="#F6A21E"/>
<stop offset="1" stop-color="#F1CA2D"/>
</linearGradient>
<linearGradient id="paint1_linear_45_1096" x1="166.707" y1="6.7374" x2="166.707" y2="31.129" gradientUnits="userSpaceOnUse">
<stop stop-color="#56295A"/>
<stop offset="1" stop-color="#5C6ABF"/>
</linearGradient>
<linearGradient id="paint2_linear_45_1096" x1="109.368" y1="23.3061" x2="134.598" y2="8.15326" gradientUnits="userSpaceOnUse">
<stop/>
<stop offset="0.807292" stop-color="#3D3D3D" stop-opacity="0"/>
</linearGradient>
<linearGradient id="paint3_linear_45_1096" x1="114.743" y1="12.1664" x2="106.48" y2="24.4175" gradientUnits="userSpaceOnUse">
<stop stop-color="#5C6ABF"/>
<stop offset="1" stop-color="#56295A"/>
</linearGradient>
</defs>
</svg>

<svg width="287" height="64" fill="none" xmlns="http://www.w3.org/2000/svg"><g filter="url(#a)"><path d="M189.012 50.643c-86.329 15.479-124.663-7.162-152.465-23.83C22.759 18.546 13.274 8.595 4.767-.66l50.86-.011 95.085-.043c38.312-.009 80.648.004 131.427-.03-28.485 23.527-52.795 44.155-93.127 51.386Z" fill="url(#b)"/></g><path d="M169.251 18.208c1.399.247 2.512.922 3.339 2.024.848 1.102 1.272 2.463 1.272 4.082 0 1.012-.18 1.934-.54 2.767a5.626 5.626 0 0 1-1.495 2.159c-.636.607-1.41 1.068-2.322 1.383-.89.337-1.886.506-2.989.506-1.611 0-3.021-.349-4.23-1.046a6.592 6.592 0 0 1-2.734-2.834l1.494-1.45a5.364 5.364 0 0 0 2.035 2.361c.912.585 2.057.877 3.435.877 1.59 0 2.841-.416 3.753-1.248.911-.81 1.367-1.98 1.367-3.509 0-1.551-.477-2.777-1.431-3.677-.954-.9-2.332-1.35-4.134-1.35h-.795v-1.956h.858c1.633 0 2.884-.394 3.753-1.18.869-.81 1.304-1.856 1.304-3.138 0-.675-.117-1.271-.35-1.788a3.388 3.388 0 0 0-.986-1.282 3.93 3.93 0 0 0-1.463-.81 5.81 5.81 0 0 0-1.812-.27c-1.209 0-2.279.292-3.212.877-.912.563-1.601 1.35-2.067 2.362l-1.4-1.417a5.195 5.195 0 0 1 1.082-1.586c.466-.495.996-.91 1.59-1.248a7.781 7.781 0 0 1 1.971-.776 8.196 8.196 0 0 1 2.226-.304c.976 0 1.866.147 2.672.439a6.197 6.197 0 0 1 2.131 1.248 5.177 5.177 0 0 1 1.367 1.89c.339.742.509 1.563.509 2.462 0 .675-.096 1.327-.286 1.957a5.691 5.691 0 0 1-.827 1.653A5.129 5.129 0 0 1 171 17.601a4.424 4.424 0 0 1-1.749.607Z" fill="url(#c)"/><path d="M188.177 25.424c.492 0 .929.115 1.309.343.38.23.671.55.872.965.209.415.314.9.314 1.458 0 .557-.105 1.05-.314 1.479-.208.421-.503.75-.883.986-.373.229-.806.343-1.298.343-.462 0-.861-.097-1.197-.29a1.797 1.797 0 0 1-.738-.835v1.05h-.682v-7.889h.671v3.527c.164-.372.414-.654.749-.847.336-.193.735-.29 1.197-.29Zm-.078 4.995c.582 0 1.036-.196 1.365-.59.328-.392.492-.939.492-1.64 0-.692-.164-1.232-.492-1.618-.329-.386-.787-.578-1.376-.578-.589 0-1.044.193-1.365.578-.321.386-.481.933-.481 1.64 0 .708.16 1.254.481 1.64.321.379.779.568 1.376.568ZM199.105 25.553l-2.64 5.927c-.261.586-.589 1.015-.984 1.287-.388.278-.876.475-1.465.589l-.135-.514c.537-.122.94-.28 1.209-.472.275-.193.507-.497.693-.911l.235-.525-2.394-5.38h.727l2.025 4.715 2.036-4.716h.693Z" fill="#000"/><ellipse cx="179.058" cy="30.64" rx=".542" ry=".543" fill="#000"/><path d="M148.251 30.857c-.953 0-1.799-.239-2.536-.717a5.944 5.944 0 0 1-1.755-1.847v6.975h-1.474v-15.95h1.322v2.195a5.381 5.381 0 0 1 1.799-1.716 4.539 4.539 0 0 1 2.406-.674c.78 0 1.495.167 2.145.5a5.298 5.298 0 0 1 1.691 1.304 5.758 5.758 0 0 1 1.105 1.869c.275.71.412 1.441.412 2.194 0 .797-.123 1.55-.368 2.26-.246.71-.6 1.333-1.062 1.869-.448.536-.99.963-1.626 1.282a4.616 4.616 0 0 1-2.059.456Zm-.412-1.303c.607 0 1.156-.13 1.648-.392a4.03 4.03 0 0 0 1.278-1.02 4.69 4.69 0 0 0 .824-1.457 5.21 5.21 0 0 0 .282-1.695 4.8 4.8 0 0 0-1.214-3.194 4.191 4.191 0 0 0-1.344-1 3.714 3.714 0 0 0-1.647-.369c-.376 0-.773.08-1.192.24a4.617 4.617 0 0 0-1.149.607c-.346.247-.65.544-.91.891a2.387 2.387 0 0 0-.455 1.065v3.477c.173.406.39.782.65 1.13.275.348.578.652.91.913.347.246.716.441 1.106.586.39.145.794.218 1.213.218ZM124.046 30.857c-.824 0-1.575-.152-2.254-.456a5.82 5.82 0 0 1-1.777-1.282 5.883 5.883 0 0 1-1.149-1.869 6.162 6.162 0 0 1-.412-2.238c0-.797.138-1.55.412-2.26a6.199 6.199 0 0 1 1.17-1.869 5.825 5.825 0 0 1 1.778-1.282 5.187 5.187 0 0 1 2.232-.478c.809 0 1.553.16 2.232.478a5.495 5.495 0 0 1 1.778 1.282 5.696 5.696 0 0 1 1.17 1.87c.289.709.433 1.462.433 2.259 0 .782-.137 1.528-.411 2.238a5.682 5.682 0 0 1-1.171 1.869A5.48 5.48 0 0 1 126.3 30.4c-.679.304-1.43.456-2.254.456Zm-4.096-5.823c0 .637.108 1.231.325 1.782.217.536.506 1.014.867 1.434.376.405.809.724 1.3.956a3.808 3.808 0 0 0 1.604.348c.564 0 1.091-.116 1.582-.348a4.412 4.412 0 0 0 1.322-.978 4.8 4.8 0 0 0 1.214-3.238c0-.623-.108-1.21-.325-1.76a4.472 4.472 0 0 0-.889-1.456 3.974 3.974 0 0 0-1.322-.978 3.48 3.48 0 0 0-1.582-.369c-.563 0-1.091.123-1.582.37a4.047 4.047 0 0 0-1.3.977c-.376.42-.672.913-.889 1.478a4.815 4.815 0 0 0-.325 1.782ZM101.566 30.097a6.956 6.956 0 0 1-.39.174 5.866 5.866 0 0 1-.563.217 6.744 6.744 0 0 1-.737.195 4.193 4.193 0 0 1-.867.087c-.318 0-.622-.043-.91-.13a2.22 2.22 0 0 1-.76-.391 2.092 2.092 0 0 1-.52-.695 2.215 2.215 0 0 1-.194-.957v-8.105h-1.56V19.32h1.56v-3.825h1.474v3.825h2.6v1.173h-2.6v7.693c.028.42.173.731.433.934.275.188.585.282.932.282.419 0 .787-.065 1.105-.195.318-.145.52-.246.607-.304l.39 1.195ZM81.145 30.64 76.55 19.32h1.517l3.88 9.952 3.9-9.952h1.431L82.684 30.64h-1.54Z" fill="#000"/><path fill-rule="evenodd" clip-rule="evenodd" d="M112.252 16.348a.758.758 0 0 1 .231 1.045 13.5 13.5 0 0 0-2.11 7.271c0 7.48 6.048 13.544 13.509 13.544 6.762 0 12.365-4.982 13.354-11.485a.755.755 0 1 1 1.492.228c-1.099 7.231-7.327 12.77-14.846 12.77-8.294 0-15.018-6.74-15.018-15.057 0-2.974.861-5.749 2.346-8.085a.753.753 0 0 1 1.042-.23Z" fill="url(#d)"/><path d="M115.725 10.696c.348-.17.749.1.723.488l-.683 9.968c-.035.52-.736.651-.957.18l-2.126-4.528a.503.503 0 0 0-.415-.288l-5.401-.43c-.51-.04-.641-.73-.181-.955l9.04-4.435Z" fill="url(#e)"/><path d="M121.206 5.56a.466.466 0 0 1 .378-.533l2.724-.5a.45.45 0 0 1 .53.367.466.466 0 0 1-.378.533l-2.724.5a.45.45 0 0 1-.53-.367ZM120.27 4.118a.43.43 0 0 1-.105-.624l1.598-2.252a.478.478 0 0 1 .642-.118c.202.147.25.432.107.633L120.903 4a.45.45 0 0 1-.633.117ZM114.054 2.641a.465.465 0 0 1 .639-.117l2.236 1.537a.446.446 0 0 1 .106.63.465.465 0 0 1-.639.118l-2.236-1.537a.446.446 0 0 1-.106-.63ZM120.819 7.236a.466.466 0 0 1 .64-.117l2.236 1.537a.446.446 0 0 1 .106.63.466.466 0 0 1-.64.118l-2.236-1.538a.446.446 0 0 1-.106-.63ZM118.016 3.391l-.45-2.663a.46.46 0 0 1 .373-.526.444.444 0 0 1 .522.362l.451 2.663a.461.461 0 0 1-.373.526.445.445 0 0 1-.523-.362Z" fill="#5C6ABF"/><path d="m122.408 1.13-2.139 2.983a.429.429 0 0 1-.106-.622l1.601-2.244a.48.48 0 0 1 .644-.118Z" fill="#5C6ABF"/><defs><linearGradient id="b" x1="27.595" y1="-102.399" x2="222.54" y2="54.704" gradientUnits="userSpaceOnUse"><stop stop-color="#F6A21E"/><stop offset="1" stop-color="#F1CA2D"/></linearGradient><linearGradient id="c" x1="166.707" y1="6.737" x2="166.707" y2="31.129" gradientUnits="userSpaceOnUse"><stop stop-color="#56295A"/><stop offset="1" stop-color="#5C6ABF"/></linearGradient><linearGradient id="d" x1="109.368" y1="23.306" x2="134.598" y2="8.153" gradientUnits="userSpaceOnUse"><stop/><stop offset=".807" stop-color="#3D3D3D" stop-opacity="0"/></linearGradient><linearGradient id="e" x1="114.743" y1="12.166" x2="106.48" y2="24.418" gradientUnits="userSpaceOnUse"><stop stop-color="#5C6ABF"/><stop offset="1" stop-color="#56295A"/></linearGradient><filter id="a" x=".766" y="-.743" width="285.373" height="64.555" filterUnits="userSpaceOnUse" color-interpolation-filters="sRGB"><feFlood flood-opacity="0" result="BackgroundImageFix"/><feColorMatrix in="SourceAlpha" values="0 0 0 0 0 0 0 0 0 0 0 0 0 0 0 0 0 0 127 0" result="hardAlpha"/><feOffset dy="4"/><feGaussianBlur stdDeviation="2"/><feColorMatrix values="0 0 0 0 0 0 0 0 0 0 0 0 0 0 0 0 0 0 0.25 0"/><feBlend in2="BackgroundImageFix" result="effect1_dropShadow_45_1096"/><feBlend in="SourceGraphic" in2="effect1_dropShadow_45_1096" result="shape"/></filter></defs></svg>
